X: 4969
T: Brenda Stubbert's
R: reel
M: 4/4
K: Edorian
|:E2FE DEEF|E2FA BAAF|D2FE FDDF|G2FE FDDF|
E2 FE DEEF|E2FA BAAB|dBAF DEFA|B2AF BE E2:|
|:E2 e2 E2 d2|EBdB edBA|D2FE FDDF|G2FE FDDF|
E2 e2 E2 d2|EBdB edBe|dBAF DEFA|B2AF BE E2|
E2 e2 E2 d2|EBdB edBA|D2FE FDDF|G2FE FDDF|
E2 FE DEEF|E2FA BAAB|dBAF DEFA|B2AF BE E2||

